assets/svg/1F637.svg

<svg xmlns="http://www.w3.org/2000/svg" viewBox="0 0 64 64" enable-background="new 0 0 64 64"><path fill="#a2cdb9" d="M64.111,31.979c0,17.664-14.314,31.98-31.979,31.98c-17.664,0-31.979-14.316-31.979-31.98    C0.154,14.316,14.468,0,32.132,0C49.797,0,64.111,14.316,64.111,31.979z"/><path fill="#8eb1a0" d="m15.373 41.23c-5.668-12.159-5.921-25.24-.798-36.06-8.682 5.715-14.421 15.539-14.421 26.713 0 17.664 14.314 31.979 31.979 31.979.316 0 .624-.04.936-.048-7.332-6.17-13.509-13.596-17.696-22.581"/><g fill="#fff"><path d="m27.29 48.22c.316-.715-.936-1.864-2.109-2.779-3.972 4.276-8.951 7.634-14.405 10.29 1.501 1.351 3.136 2.552 4.872 3.606 2.082-1.329 4.078-2.758 5.796-4.479 1.801-1.81 4.799-4.278 5.846-6.638"/><path d="m40.38 45.21c-.848.895-1.764 1.692-2.812 2.311.419 4.698 6.521 8.473 10.634 12.209 2.154-1.24 2.332-1.513 4.443-3.278-1.154-.613-6.939-3.39-12.265-11.242"/><path d="m62.815 27c-4.122 9.644-17.668 20.11-27.697 20.372-2.603.067-2.606 4.112 0 4.045 11.312-.29 24.04-5.929 28.712-16.843 1.012-2.369.011-9.965-1.015-7.574"/><path d="m1.386 26.686c4.124 9.644 17.735 20.431 27.76 20.688 2.603.067 2.607 4.112 0 4.045-11.313-.29-24.04-5.929-28.712-16.843-1.01-2.37-.073-10.282.952-7.89"/><path d="m15.547 41.474c0-9.858 6.715-9.675 15.871-9.675 9.164 0 17.3-.184 17.3 9.675 0 9.871-7.426 17.866-16.585 17.866-9.156 0-16.586-7.995-16.586-17.866"/></g><g fill="#2b4737"><path d="m24.438 20.573c-5.949-.411-11.344 2.028-15.08 6.66-1.62 2.01 1.224 4.89 2.859 2.859 3.136-3.887 7.217-5.822 12.221-5.475 2.608.18 2.588-3.866.0001-4.04"/><path d="m39.827 20.235c5.952-.413 11.348 2.028 15.08 6.66 1.624 2.01-1.22 4.892-2.859 2.86-3.132-3.885-7.213-5.82-12.221-5.475-2.603.18-2.588-3.865 0-4.045"/></g></svg>

<?xml version="1.0" encoding="UTF-8" standalone="no"?>
<!-- Generator: Adobe Illustrator 16.0.0, SVG Export Plug-In . SVG Version: 6.00 Build 0)  -->

<svg
   xmlns:dc="http://purl.org/dc/elements/1.1/"
   xmlns:cc="http://creativecommons.org/ns#"
   xmlns:rdf="http://www.w3.org/1999/02/22-rdf-syntax-ns#"
   xmlns:svg="http://www.w3.org/2000/svg"
   xmlns="http://www.w3.org/2000/svg"
   xmlns:sodipodi="http://sodipodi.sourceforge.net/DTD/sodipodi-0.dtd"
   xmlns:inkscape="http://www.inkscape.org/namespaces/inkscape"
   version="1.1"
   id="Layer_1"
   x="0px"
   y="0px"
   width="64px"
   height="64px"
   viewBox="0 0 64 64"
   enable-background="new 0 0 64 64"
   xml:space="preserve"
   inkscape:version="0.48.5 r10040"
   sodipodi:docname="1F637.svg"
   inkscape:export-filename="D:\TESTINGEMOJI\SVGTEST\1F637.png"
   inkscape:export-xdpi="90"
   inkscape:export-ydpi="90"><metadata
   id="metadata7542"><rdf:RDF><cc:Work
       rdf:about=""><dc:format>image/svg+xml</dc:format><dc:type
         rdf:resource="http://purl.org/dc/dcmitype/StillImage" /><dc:title></dc:title></cc:Work></rdf:RDF></metadata><defs
   id="defs7540" /><sodipodi:namedview
   pagecolor="#ffffff"
   bordercolor="#666666"
   borderopacity="1"
   objecttolerance="10"
   gridtolerance="10"
   guidetolerance="10"
   inkscape:pageopacity="0"
   inkscape:pageshadow="2"
   inkscape:window-width="640"
   inkscape:window-height="480"
   id="namedview7538"
   showgrid="false"
   inkscape:zoom="3.6875"
   inkscape:cx="32"
   inkscape:cy="32"
   inkscape:window-x="559"
   inkscape:window-y="238"
   inkscape:window-maximized="0"
   inkscape:current-layer="Layer_1" />
<g
   id="g7508">
	<g
   id="g7510">
		<path
   fill="#A2CDB9"
   d="M64.111,31.979c0,17.664-14.314,31.98-31.979,31.98c-17.664,0-31.979-14.316-31.979-31.98    C0.154,14.316,14.468,0,32.132,0C49.797,0,64.111,14.316,64.111,31.979z"
   id="path7512" />
	</g>
	<g
   id="g7514">
		<path
   fill="#8EB1A0"
   d="M15.373,41.226C9.705,29.067,9.452,15.981,14.575,5.163C5.893,10.878,0.154,20.702,0.154,31.876    c0,17.664,14.314,31.979,31.979,31.979c0.316,0,0.624-0.04,0.936-0.048C25.737,57.637,19.56,50.211,15.373,41.226z"
   id="path7516" />
	</g>
	<path
   fill="#FFFFFF"
   d="M27.286,48.219c0.316-0.715-0.936-1.864-2.109-2.779c-3.972,4.276-8.951,7.634-14.405,10.29   c1.501,1.351,3.136,2.552,4.872,3.606c2.082-1.329,4.078-2.758,5.796-4.479C23.241,53.047,26.239,50.579,27.286,48.219z"
   id="path7518" />
	<path
   fill="#FFFFFF"
   d="M40.384,45.211c-0.848,0.895-1.764,1.692-2.812,2.311c0.419,4.698,6.521,8.473,10.634,12.209   c2.154-1.24,2.332-1.513,4.443-3.278C51.495,55.84,45.71,53.063,40.384,45.211z"
   id="path7520" />
	<g
   id="g7522">
		<path
   fill="#FFFFFF"
   d="M62.815,27.001c-4.122,9.644-17.668,20.115-27.697,20.372c-2.603,0.067-2.606,4.112,0,4.045    c11.312-0.29,24.044-5.929,28.712-16.843C64.842,32.206,63.841,24.61,62.815,27.001z"
   id="path7524" />
	</g>
	<g
   id="g7526">
		<path
   fill="#FFFFFF"
   d="M1.386,26.686c4.124,9.644,17.735,20.431,27.76,20.688c2.603,0.067,2.607,4.112,0,4.045    c-11.313-0.29-24.043-5.929-28.712-16.843C-0.577,32.206,0.361,24.294,1.386,26.686z"
   id="path7528" />
	</g>
	<g
   id="g7530">
		<path
   fill="#FFFFFF"
   d="M15.547,41.474c0-9.858,6.715-9.675,15.871-9.675c9.164,0,17.3-0.184,17.3,9.675    c0,9.871-7.426,17.866-16.585,17.866C22.977,59.34,15.547,51.345,15.547,41.474z"
   id="path7532" />
	</g>
	<path
   fill="#2B4737"
   d="M24.438,20.573c-5.949-0.411-11.344,2.028-15.081,6.66c-1.62,2.01,1.224,4.89,2.859,2.859   c3.136-3.887,7.217-5.822,12.221-5.475C27.045,24.797,27.025,20.751,24.438,20.573z"
   id="path7534" />
	<path
   fill="#2B4737"
   d="M39.827,20.235c5.952-0.413,11.348,2.028,15.08,6.66c1.624,2.01-1.22,4.892-2.859,2.86   c-3.132-3.885-7.213-5.82-12.221-5.475C37.224,24.46,37.239,20.415,39.827,20.235z"
   id="path7536" />
</g>
</svg>
